X:1
T:Yeoman's Carol
M:6/8
L:1/8
K:G
D|"G"G2 A B2 c|d2e d3|"D"d3 "Am"A2 B| c2B A2G|"D"D3-D2 D|!
"G"G2 A B2 c|d2e d3|"D"d3 "Am"A2 B| c2B A2G|"G"G3-G3|]!
"Am"c3 B2d|G2E F2G|"D 60 "A3 F2E |"D"D3-D3|!
"G"d3 "D"A2B|"Am"c2d edc|"G"B3 "D"A3|"G"G3-G2|]!
